vendor/shopware/storefront/Resources/app/storefront/dist/assets/icon/default/loading-circle.svg

<svg xmlns="http://www.w3.org/2000/svg" width="24" height="24" viewBox="0 0 24 24">
  <path fill="#758CA3" fill-rule="evenodd" d="M7.63622676,0.818393095 C8.15067312,0.61748668 8.73058112,0.871661025 8.93148753,1.38610738 C9.13239395,1.90055374 8.8782196,2.48046175 8.36377324,2.68136816 C4.55775367,4.16773061 2,7.84478205 2,12 C2,17.5228475 6.4771525,22 12,22 C16.155218,22 19.8322694,19.4422463 21.3186318,15.6362268 C21.5195383,15.1217804 22.0994463,14.8676061 22.6138926,15.0685125 C23.128339,15.2694189 23.3825133,15.8493269 23.1816069,16.3637732 C21.3980029,20.9309175 16.9858602,24 12,24 C5.372583,24 0,18.627417 0,12 C0,7.01413978 3.06908248,2.60199709 7.63622676,0.818393095 Z M24,12 C24,12.5522847 23.5522847,13 23,13 C22.4477153,13 22,12.5522847 22,12 C22,6.4771525 17.5228475,2 12,2 C11.4477153,2 11,1.55228475 11,1 C11,0.44771525 11.4477153,-8.9928065e-14 12,-8.9928065e-14 C18.627417,-8.9928065e-14 24,5.372583 24,12 Z"/>
</svg>

<svg xmlns="http://www.w3.org/2000/svg" width="24" height="24" viewBox="0 0 24 24"><path fill="#758CA3" fill-rule="evenodd" d="M7.6362.8184c.5145-.201 1.0944.0533 1.2953.5677.2009.5145-.0533 1.0944-.5677 1.2953C4.5578 4.1677 2 7.8448 2 12c0 5.5228 4.4772 10 10 10 4.1552 0 7.8323-2.5578 9.3186-6.3638.201-.5144.7808-.7686 1.2953-.5677.5144.201.7686.7808.5677 1.2953C21.398 20.9309 16.986 24 12 24 5.3726 24 0 18.6274 0 12 0 7.0141 3.069 2.602 7.6362.8184zM24 12c0 .5523-.4477 1-1 1s-1-.4477-1-1c0-5.5228-4.4772-10-10-10-.5523 0-1-.4477-1-1s.4477-1 1-1c6.6274 0 12 5.3726 12 12z"/></svg>
